X:1
T:A minor Daniel Belknap, 1808
T:Isaac Watts, 1709 (Hymn 82, Book 1)  88. 88. (L. M.)
T:Orland
T:Transcribed from The Meridian Harmony, 1808.
%%score [ 1 2 3 4 ]
L:1/8
M:2/4
K:C
V:1 treble nm="Treble" snm="Tr."
V:2 treble nm="Counter" snm="C."
V:3 treble-8 nm="Tenor" snm="T."
V:4 bass nm="Bass" snm="B."
V:1
 A2 | c2 e2 | e2 ed | c2 c2 | B3 A | ^G2 c2 | B2 Gc | B2 A2 | ^G4 | z2 B2 | c2 c2 | G2 Gc | B2 cd | %13
 e2 e2 | c3 A | ^G2 cB | A2 ^G2 | A4 | z2 c2 | e2 dc | d2 e2 | f2 ed | e2 B2 | c2 BA | B2 c2 | %25
 d2 cB | c4 | z2 cB | c2 BA | B2 e^d | e2 cA | ^G2 AB | cd cB | A2 a2 | ed cB | A4 |] %36
V:2
"^1. Shall the vile race of flesh and blood     Contend  with their Cre – a–tor,   God?     Shall mortal worms presume to     be   More" E2 | %1
 E2 A2 | G2 G2 | E2 A2 | G3 F | E2 E2 | E2 G2 | G2 E2 | E4 | z2 E2 | E2 E2 | E2 D2 | G2 G2 | %13
 G2 A2 | %14
"^1.  ho  –   ly,         wise,  or      just than   he?         Behold    he    puts his  trust in   none  Of    all   the     spirits  round his throne;    Their" (E A2) G/F/ | %15
 E2 E2 | F2 E2 | E4 | z4 | z4 | z4 | z4 | z4 | z4 | z4 | z4 | z4 | z2 A2 | %28
"^1.  natures    when  compared     with       his    Are           neither           ho   –  ly,          just,     nor        wise." A2 A2 | %29
 G2 ^G2 | A2 E2 | E2 E2 | E2 G2 | A2 F2 | E2 E2 | E4 |] %36
V:3
"^2. From night to day, from day to night,     We      die by  thousands in thy    sight;        Buried   in   dust whole nations   lie     Like" E2 | %1
 A2 c2 | B2 A^G | A2 c2 | d3 B | e2 e2 | e2 dc | d2 c2 | B4 | z2 E2 | G2 E2 | c2 BA | d2 cB | %13
 c2 A2 | %14
"^2.  a      for    –   got – ten     va – ni –   ty.            Al–migh–ty  Power, to thee we  bow;  How frail are   we, how  glorious  thou!       No" e3 d | %15
 c2 E2 | c2 B2 | A4 | z2 A2 | c2 BA | B2 c2 | d2 cB | c2 d2 | e2 dc | d2 e2 | f2 ed | e4 | z2 ed | %28
"^2.  more the sons  of           earth shall   dare    With       an      e     –    ter   –  nal        God      com –  pare." e2 dc | %29
 d2 cB | c2 BA | B2 A^G | AB cd | e>f ed | cB A^G | A4 |] %36
V:4
 A,2 | A,2 A,,2 | E,2 E,2 | A,2 C,2 | G,3 A, | E,2 E,2 | E,2 G,2 | G,2 A,2 | E,4 | z2 E,2 | %10
 C,2 C,2 | C,2 G,2 | G,2 G,,2 | C,2 E,2 | A,3 D, | E,2 ^G,2 | A,2 E,2 | A,,4 | z4 | %19
"^________________________________________\nEdited by B. C. Johnston, 2015\n   1. Measure 7, \nCounter\n: first note changed from A to E.\n   2. Measure 14, Counter: second note changed from F to A." z4 | %20
 z4 | z4 | z4 | z4 | z4 | z4 | z4 | z2 A,2 | A,2 D,2 | G,2 E,2 | A,2 A,,2 | E,2 E,2 | A,2 G,2 | %33
 C,2 D,2 | E,2 E,2 | A,,4 |] %36

